icons/unity-panel/22x22/panel/indicator-notification-unread-dnd.svg

<?xml version="1.0" encoding="UTF-8" standalone="no"?>
<svg
   viewBox="0 0 22 22"
   version="1.1"
   id="svg10"
   sodipodi:docname="indicator-notification-unread-dnd.svg"
   inkscape:version="1.1.1 (3bf5ae0d25, 2021-09-20)"
   xmlns:inkscape="http://www.inkscape.org/namespaces/inkscape"
   xmlns:sodipodi="http://sodipodi.sourceforge.net/DTD/sodipodi-0.dtd"
   xmlns="http://www.w3.org/2000/svg"
   xmlns:svg="http://www.w3.org/2000/svg">
  <defs
     id="defs14" />
  <sodipodi:namedview
     id="namedview12"
     pagecolor="#ffffff"
     bordercolor="#666666"
     borderopacity="1.0"
     inkscape:pageshadow="2"
     inkscape:pageopacity="0.0"
     inkscape:pagecheckerboard="0"
     showgrid="true"
     inkscape:zoom="34.198256"
     inkscape:cx="9.1086516"
     inkscape:cy="10.994713"
     inkscape:window-width="1852"
     inkscape:window-height="1043"
     inkscape:window-x="1434"
     inkscape:window-y="0"
     inkscape:window-maximized="1"
     inkscape:current-layer="svg10">
    <inkscape:grid
       type="xygrid"
       id="grid849" />
  </sodipodi:namedview>
  <path
     id="path2-3"
     style="font-variant-ligatures:normal;font-variant-position:normal;font-variant-caps:normal;font-variant-numeric:normal;font-variant-alternates:normal;font-variant-east-asian:normal;font-feature-settings:normal;font-variation-settings:normal;text-indent:0;text-decoration-line:none;text-decoration-style:solid;text-decoration-color:#000000;text-transform:none;text-orientation:mixed;white-space:normal;shape-padding:0;shape-margin:0;inline-size:0;isolation:auto;mix-blend-mode:normal;fill:#ffffff;stroke-width:0.999991"
     d="M 9.3867188 2 C 7.8426151 2.3580237 6.7185778 3.1754246 6.0195312 4.3125 C 5.319485 5.4505753 5.030002 6.8724567 5 8.4765625 L 6 8.4960938 C 6.029002 6.9999974 6.3040562 5.7559984 6.8710938 4.8359375 C 7.4381313 3.9148765 8.2821931 3.2826768 9.6132812 2.9726562 L 9.3867188 2 z M 12.613281 2 L 12.386719 2.9726562 C 13.661097 3.2696919 14.488737 3.8634137 15.054688 4.7226562 L 15.773438 4.0039062 C 15.067448 3.0274819 14.015848 2.3247536 12.615234 2 L 12.613281 2 z M 11.023438 4 C 9.4973522 4 8.4792669 4.7808206 7.9511719 5.8378906 C 7.4221369 6.8949806 7.2763994 8.1911306 7.1503906 9.4492188 C 7.0243818 10.707307 6.9211947 11.936486 6.6171875 12.767578 C 6.5607665 12.921627 6.4961338 13.055819 6.4277344 13.179688 L 7.9003906 11.707031 C 8.0134795 11.010688 8.0739951 10.274321 8.1464844 9.5488281 C 8.2704932 8.3067398 8.43764 7.1032486 8.8476562 6.2851562 C 9.2546826 5.4671239 9.7983402 5 11.023438 5 C 12.247526 5 12.792175 5.467024 13.201172 6.2851562 C 13.214432 6.3116652 13.225531 6.3418366 13.238281 6.3691406 L 13.982422 5.625 C 13.425637 4.676609 12.444525 4 11.023438 4 z M 17.050781 4.0273438 L 4.5507812 16.527344 L 5.2578125 17.234375 L 7.4921875 15 L 17.023438 15 L 17.023438 14 C 16.553413 14 16.258676 13.883555 16.017578 13.685547 C 15.77756 13.486539 15.581697 13.182604 15.429688 12.767578 C 15.125671 11.937546 15.022483 10.707307 14.896484 9.4492188 C 14.841425 8.899464 14.782142 8.3438293 14.689453 7.8027344 L 17.757812 4.734375 L 17.050781 4.0273438 z M 13.804688 8.6875 C 13.840887 8.9699973 13.871311 9.2575208 13.900391 9.5488281 C 14.0244 10.790916 14.111115 12.065485 14.494141 13.109375 C 14.62015 13.455392 14.863023 13.719002 15.082031 14 L 8.4921875 14 L 13.804688 8.6875 z M 9 16 C 9.012511 17.108589 9.9148392 18 11.023438 18 C 12.132127 18 13.034375 17.108609 13.046875 16 L 9 16 z " />
</svg>

<svg version="1.1" viewBox="0 0 22 22" xmlns="http://www.w3.org/2000/svg">
 <path d="m9.3867 2c-1.5441 0.35802-2.6681 1.1754-3.3672 2.3125-0.70005 1.1381-0.98953 2.56-1.0195 4.1641l1 0.019531c0.029002-1.4961 0.30406-2.7401 0.87109-3.6602 0.56704-0.92106 1.4111-1.5533 2.7422-1.8633l-0.22656-0.97266zm3.2266 0-0.22656 0.97266c1.2744 0.29704 2.102 0.89076 2.668 1.75l0.71875-0.71875c-0.70599-0.97642-1.7576-1.6792-3.1582-2.0039h-0.001953zm-1.5898 2c-1.5261 0-2.5442 0.78082-3.0723 1.8379-0.52904 1.0571-0.67477 2.3532-0.80078 3.6113s-0.2292 2.4873-0.5332 3.3184c-0.056421 0.15405-0.12105 0.28824-0.18945 0.41211l1.4727-1.4727c0.11309-0.69634 0.1736-1.4327 0.24609-2.1582 0.12401-1.2421 0.29116-2.4456 0.70117-3.2637 0.40703-0.81803 0.95068-1.2852 2.1758-1.2852 1.2241 0 1.7687 0.46702 2.1777 1.2852 0.01326 0.026509 0.024359 0.05668 0.037109 0.083984l0.74414-0.74414c-0.55678-0.94839-1.5379-1.625-2.959-1.625zm6.0273 0.027344-12.5 12.5 0.70703 0.70703 2.2344-2.2344h9.5313v-1c-0.47002 0-0.76476-0.11644-1.0059-0.31445-0.24002-0.19901-0.43588-0.50294-0.58789-0.91797-0.30402-0.83003-0.4072-2.0603-0.5332-3.3184-0.055059-0.54975-0.11434-1.1054-0.20703-1.6465l3.0684-3.0684-0.70703-0.70703zm-3.2461 4.6602c0.036199 0.2825 0.066623 0.57002 0.095703 0.86133 0.12401 1.2421 0.21072 2.5167 0.59375 3.5605 0.12601 0.34602 0.36888 0.60963 0.58789 0.89062h-6.5898l5.3125-5.3125zm-4.8047 7.3125c0.012511 1.1086 0.91484 2 2.0234 2 1.1087 0 2.0109-0.89139 2.0234-2h-4.0469z" fill="#fff" stroke-width=".99999" style="font-feature-settings:normal;font-variant-alternates:normal;font-variant-caps:normal;font-variant-east-asian:normal;font-variant-ligatures:normal;font-variant-numeric:normal;font-variant-position:normal;font-variation-settings:normal;inline-size:0;isolation:auto;mix-blend-mode:normal;shape-margin:0;shape-padding:0;text-decoration-color:#000000;text-decoration-line:none;text-decoration-style:solid;text-indent:0;text-orientation:mixed;text-transform:none;white-space:normal"/>
</svg>
